X: 176
U:~=!turn!
M:C
L:1/8
K:D
[2 f>d c/2d/2e B<G F/2G/2A | G>EC>A, D2 D || g |: f>d f/2g/2a f<dd>f | g>ec>A =c/2d/2e {/f}g2 |
[1 f>d f/2g/2a f<dd>g | f>da>f b>g Ta2 :| [2 f>d c/2d/2e B>G F/2G/2A | {/F}G>EC>A, D2 D|]


